X:1
T:Sweden
T:Sweden for Solo Piano From Minecraft 
T:Composer: Daniel Rosenfeld (C418) Arranger: Demetrius Bitler
C:Daniel Rosenfeld (C418)
Z:Arranger: Demetrius Bitler
%%score { ( 1 3 4 5 ) | 2 }
L:1/8
Q:1/4=40
M:4/4
K:D
V:1 treble nm="Piano" snm="Pno."
V:3 treble 
V:4 treble 
V:5 treble 
V:2 bass 
V:1
"^Tranquillo" [E,G,]4 [A,D]4 | [F,A,]4 [E,A,C]4 | [G,B,]4 [A,F]4 | [F,C]4 [A,CE]4 | %4
 [G,B,]4 [A,F]4 | [F,C]4 [A,CE]4 |[K:treble] [E,G,]4 [A,D]4 | [F,A,]4 [A,C]4 | [E,G,]4 [A,D]4 | %9
 [F,A,]4 [A,C]4 | [E,G,]4 [FA]4 | [FA]4 [CE]4 | [E,G,]4 [A,D]4 | [F,A,]4 [A,C]4 | [E,G,]4 [A,D]4 | %15
 [F,A,]4 [A,C]4 | [E,G,]4 [FA]4 | [F,A,]4 [A,C]4 | [B,DF]4 [B,E]4 | [E,A,]4 G,4 | [B,DF]4 [B,E]4 | %21
 [E,A,]4 G,4- | G,8 | %23
!p!"^Lightly, like string pizzicato." !arpeggio!.[dgb] z!8va(! .a'.b' !arpeggio!.[ad'f'] z z .d'/.e'/ | %24
 !arpeggio!.[fac'] z z .f'/.a'/ !arpeggio!.[fac'e'] z z2!8va)! | %25
 !arpeggio!.[DGB] z .a.b !arpeggio!.[Adf] z z .d/.e/ | %26
 !arpeggio!.[FAc] z z .f/.a/ !arpeggio!.[FAce] z z2 | [E,G,]4 [Ad]4 | [FA]4 [A,C]4 | %29
 [E,G,]4 [A,D]4 | [CFA]4 [CE]4 | [E,G,]4 [DF]4 | [CFA]4 [A,C]4 | [E,G,]4 [A,D]4 | [F,A,]4 [CE]4 | %35
 [E,G,]4 [FA]4 | [A,C]4 [CE]4 |!>(! [E,G,]4 [A,D]4 | [F,A,]4!>)! [F,C]4 |] %39
V:2
!mp! E,,2 F,,2 G,,2 B,,2 | A,,2 G,,2 D,,4 | E,,2 F,,2 G,,2 B,,2 | A,,2 G,,2 D,,4 | %4
 E,,2 F,,2 G,,2 B,,2 | A,,2 G,,2 D,,4 | E,,2 F,,2 G,,2 B,,2 | A,,2 G,,2 D,,4 | %8
 E,,2 F,,2 G,,2 B,,2 | A,,2 G,,2 D,,4 | E,,2 F,,2 G,,2 B,,2 | A,,2 G,,2 D,,4 | %12
 E,,2 F,,2 G,,2 B,,2 | A,,2 G,,2 D,,4 | E,,2 F,,2 G,,2 B,,2 | A,,2 G,,2 D,,4 | %16
 E,,2 F,,2 G,,2 B,,2 | A,,2 G,,2 D,,4 |!mf! B,,,4 E,,4 | A,,4 G,,4 | B,,4 E,,4 | A,,4 G,,4- | %22
 G,,8 |[K:treble] .E z .F z .G z .B z | .A z .G z .D z z2 | .E z .F z .G z .B z | %26
 .A z .G z .D z z2 |[K:bass]!mf! E,,2 F,,2 G,,2 B,,2 | A,,2 G,,2 D,,4 | E,,2 F,,2 G,,2 B,,2 | %30
 A,,2 G,,2 D,,4 | E,,2 F,,2 G,,2 B,,2 | A,,2 G,,2 D,,4 |!mp! E,,2 F,,2 G,,2 B,,2 | A,,2 G,,2 D,,4 | %35
 E,,2 F,,2 G,,2 B,,2 | A,,2 G,,2 D,,4 | E,,2 F,,2 G,,2 B,,2 | A,,2 G,,2!ppp! D,,4 |] %39
V:3
 x8 | x8 | x8 | x8 | x8 | x8 |[K:treble] z2 AB F3 D/E/ | C3 F/A/ E4 | z dBA F3 D/E/ | C3 A/F/ E4 | %10
 z2 AB d3 f/e/ | c3 d/c/ A4 | z2 BA F3 D/E/ | C3 F/A/ E4 | z2 AB F3 D/E/ | C3 F/A/ E4 | %16
 z2 AB d3 D/E/ | C2 z F/A/ E4 | z2 z B/A/ ^G2 ED | C3 D/E/ B,4 | d3 B/A/ ^G2 ED | C3 D/E/ B,4- | %22
 B,8 | x2!8va(! x6 | x8!8va)! | x8 | x8 | %27
 z !arpeggio![dd']!arpeggio![Bb]!arpeggio![Aa] [Ff]3 [Dd]/[Ee]/ | [Cc]3 a E4 | %29
 x2 AB x e f[Aa]/[Ff]/ | [Cc]2 Bd/c/ A4 | z dBA de fA/F/ | [Cc]2 dF/A/ E4 | z2 A2 F3 D | C2 F2 A4 | %35
 z2 d2 e2 dA | F4 A4 | x8 | x8 |] %39
V:4
 x8 | x8 | x8 | x8 | x8 | x8 |[K:treble] x8 | x8 | x8 | x8 | x8 | x8 | x8 | x8 | B,7 D | C4 E4 | %16
 B,4 A,3 D | C4 E4 | x8 | x8 | x7 e | c2 df B4- | B8 | x2!8va(! x6 | x8!8va)! | x8 | x8 | x8 | %28
 x3 A/F/ x4 | x4 F4 | x8 | x4 A4 | x8 | x8 | x8 | x8 | x8 | x8 | x8 |] %39
V:5
 x8 | x8 | x8 | x8 | x8 | x8 |[K:treble] x8 | x8 | x8 | x8 | x8 | x8 | x8 | x8 | x8 | x8 | x8 | %17
 z2 f2 x4 | x8 | x8 | x8 | x8 | x8 | x2!8va(! x6 | x8!8va)! | x8 | x8 | x8 | x8 | x8 | x8 | x7 a | %32
 x8 | x8 | x8 | x8 | x8 | x8 | x8 |] %39

